symbolic/48x48/places/folder-green-download-open.svg

<svg xmlns="http://www.w3.org/2000/svg" width="48" height="48" version="1"><rect style="opacity:.2" width="40" height="26" x="4" y="17" rx="2" ry="2"/><path style="fill:#60924b" d="M4 34c0 1.108.892 2 2 2h36c1.108 0 2-.892 2-2V12c0-1.108-.892-2-2-2H24c-3 0-4-4-7-4H6c-1.108 0-2 .892-2 2"/><rect style="opacity:.2" width="40" height="22" x="4" y="19" rx="2" ry="2"/><rect style="fill:#b2bfd9" width="36" height="16" x="6" y="13" rx="2" ry="2"/><rect style="fill:#87b158" width="40" height="22" x="4" y="20" rx="2" ry="2"/><path style="opacity:.1;fill:#f4f4f7" d="M6 6c-1.108 0-2 .892-2 2v1c0-1.108.892-2 2-2h11c3 0 4 4 7 4h18c1.108 0 2 .892 2 2v-1c0-1.108-.892-2-2-2H24c-3 0-4-4-7-4z"/><path style="fill:#2f3e1f" d="M26 23v6h2.5L24 36l-4.5-7H22v-6zm-8 14h12v2H18z"/></svg>

<svg xmlns="http://www.w3.org/2000/svg" width="48" height="48" version="1">
 <rect style="opacity:0.2" width="40" height="26" x="4" y="17" rx="2" ry="2"/>
 <path style="fill:#60924b" d="M 4,34 C 4,35.108 4.892,36 6,36 H 42 C 43.108,36 44,35.108 44,34 V 12 C 44,10.892 43.108,10 42,10 H 24 C 21,10 20,6 17,6 H 6 C 4.892,6 4,6.892 4,8"/>
 <rect style="opacity:0.2" width="40" height="22" x="4" y="19" rx="2" ry="2"/>
 <rect style="fill:#b2bfd9" width="36" height="16" x="6" y="13" rx="2" ry="2"/>
 <rect style="fill:#87b158" width="40" height="22" x="4" y="20" rx="2" ry="2"/>
 <path style="opacity:0.1;fill:#f4f4f7" d="M 6,6 C 4.892,6 4,6.892 4,8 V 9 C 4,7.892 4.892,7 6,7 H 17 C 20,7 21,11 24,11 H 42 C 43.108,11 44,11.892 44,13 V 12 C 44,10.892 43.108,10 42,10 H 24 C 21,10 20,6 17,6 Z"/>
 <path style="fill:#2f3e1f" d="M 26,23 V 29 H 28.5 L 24,36 19.5,29 H 22 V 23 Z M 18,37 H 30 V 39 H 18 Z"/>
</svg>
